assets/fc/fc-collect.svg

<svg xmlns="http://www.w3.org/2000/svg" width="100%" height="100%" viewBox="0 0 48 48"><g fill="#009688"><path d="M22 35h4v11h-4z"/><path d="M24 29.6l7 8.4H17z"/></g><g fill="#009688"><path d="M22 2h4v11h-4z"/><path d="M24 18.4L17 10h14z"/></g><g fill="#009688"><path d="M2 22h11v4H2z"/><path d="M18.4 24L10 31V17z"/></g><g fill="#009688"><path d="M35 22h11v4H35z"/><path d="M29.6 24l8.4-7v14z"/></g><circle cx="24" cy="24" r="3" fill="#F44336"/></svg>

<svg xmlns="http://www.w3.org/2000/svg" width="100%" height="100%" viewBox="0 0 48 48"><g fill="#009688"><path d="M22 35H26V46H22z"/><path d="M24 29.6L31 38 17 38z"/></g><g fill="#009688"><path d="M22 2H26V13H22z"/><path d="M24 18.4L17 10 31 10z"/></g><g fill="#009688"><path d="M2 22H13V26H2z"/><path d="M18.4 24L10 31 10 17z"/></g><g fill="#009688"><path d="M35 22H46V26H35z"/><path d="M29.6 24L38 17 38 31z"/></g><circle cx="24" cy="24" r="3" fill="#F44336"/></svg>
